X:1
T:Dayspring, SM
T:Dayspring, SM
T:Cornelius Bryan (1775-1840)
T:Public Domain Courtesy of the Cyber Hymnal™
C:Cornelius Bryan (1775-1840)
Z:Public Domain
Z:Courtesy of the Cyber Hymnal™
%%score ( 1 2 ) ( 3 4 )
L:1/8
Q:1/4=115
M:3/4
K:G
V:1 treble 
V:2 treble 
V:3 bass 
V:4 bass 
V:1
 [DB]2 | (B2 A2) [DB]2 | c4 F2 | [B,G]4 [EG]2 | (F2 A2) [Dd]2 | d4 [G^c]2 | [Fd]4 [Gd]2 | %7
 (d2 c2) [GB]2 | (B2 A2) [EG]2 | (G2 F2) [CE]2 | [B,D]4 [DG]2 | [CE]4 ([DG][EA]) | B4 [FA]2 | G4 |] %14
V:2
 x2 | D4 x2 | (C2 E2) (DC) | x6 | D4 x2 | (F2 A2) x2 | x6 | A4 x2 | F4 x2 | D4 x2 | x6 | x6 | %12
 (D2 G2) x2 | G4 |] %14
V:3
 [G,,G,]2 | ([G,,G,]2 [C,F,]2) [B,,^G,]2 | [A,,A,]4 [D,A,]2 | [G,,G,]4 [^C,A,]2 | %4
 ([D,A,]2 [F,D]2) [G,B,]2 | (D2 F2) [A,E]2 | [D,D]4 [B,D]2 | [F,D]4 [G,D]2 | [D,C]4 [E,B,]2 | %9
 [B,,B,]4 [C,G,]2 | [G,,G,]4 [B,,G,]2 | [C,G,]4 G,2 | (G,2 D2) [D,C]2 | [G,,B,]4 |] %14
V:4
 x2 | x6 | x6 | x6 | x6 | A,4 x2 | x6 | x6 | x6 | x6 | x6 | x4 (B,,C,) | D,4 x2 | x4 |] %14

